img/technology-img3.svg

<svg width="80" height="84" viewBox="0 0 80 84" fill="none" xmlns="http://www.w3.org/2000/svg">
<g clip-path="url(#clip0)">
<path d="M35 57.75C30.1758 57.75 26.25 53.8242 26.25 49C26.25 44.1758 30.1758 40.25 35 40.25C39.8242 40.25 43.75 44.1758 43.75 49C43.75 53.8242 39.8242 57.75 35 57.75ZM35 43.1667C31.7829 43.1667 29.1667 45.7829 29.1667 49C29.1667 52.2171 31.7829 54.8333 35 54.8333C38.2171 54.8333 40.8333 52.2171 40.8333 49C40.8333 45.7829 38.2171 43.1667 35 43.1667Z" fill="#36A2F4"/>
<path d="M58.7125 74.1708C58.3392 74.1708 57.9658 74.0279 57.68 73.745C57.1112 73.1762 57.1112 72.2517 57.68 71.6829C63.7437 65.6192 67.0833 57.5633 67.0833 49C67.0833 31.3104 52.6896 16.9167 35 16.9167C17.3104 16.9167 2.91667 31.3104 2.91667 49C2.91667 57.5633 6.25625 65.6192 12.32 71.68C12.8888 72.2487 12.8888 73.1733 12.32 73.7421C11.7513 74.3108 10.8267 74.3108 10.2579 73.7421C3.64292 67.13 0 58.3421 0 49C0 29.7004 15.7004 14 35 14C54.2996 14 70 29.7004 70 49C70 58.3421 66.3571 67.13 59.7421 73.7421C59.4592 74.0279 59.0858 74.1708 58.7125 74.1708Z" fill="#36A2F4"/>
<path d="M50.4596 65.9165C50.0863 65.9165 49.713 65.7736 49.4271 65.4907C48.8584 64.9219 48.8584 63.9973 49.4271 63.4286C53.2917 59.5669 55.418 54.4423 55.418 48.9998C55.418 37.7415 46.2596 28.5832 35.0013 28.5832C23.743 28.5832 14.5846 37.7415 14.5846 48.9998C14.5846 54.4423 16.7109 59.5669 20.5755 63.4257C21.1442 63.9944 21.1442 64.919 20.5755 65.4877C20.0067 66.0565 19.0821 66.0565 18.5134 65.4877C14.0976 61.0777 11.668 55.2211 11.668 48.9998C11.668 36.1344 22.1359 25.6665 35.0013 25.6665C47.8667 25.6665 58.3346 36.1344 58.3346 48.9998C58.3346 55.2211 55.9051 61.0777 51.4892 65.4877C51.2063 65.7736 50.833 65.9165 50.4596 65.9165Z" fill="#36A2F4"/>
<path d="M35.0013 84.0002C34.1963 84.0002 33.543 83.3468 33.543 82.5418V56.2918C33.543 55.4868 34.1963 54.8335 35.0013 54.8335C35.8063 54.8335 36.4596 55.4868 36.4596 56.2918V82.5418C36.4596 83.3468 35.8063 84.0002 35.0013 84.0002Z" fill="#36A2F4"/>
</g>
<defs>
<clipPath id="clip0">
<rect width="70" height="70" fill="white" transform="translate(0 14)"/>
</clipPath>
</defs>
</svg>

<svg width="80" height="84" fill="none" xmlns="http://www.w3.org/2000/svg"><g clip-path="url(#clip0)" fill="#36A2F4"><path d="M35 57.75c-4.824 0-8.75-3.926-8.75-8.75s3.926-8.75 8.75-8.75 8.75 3.926 8.75 8.75-3.926 8.75-8.75 8.75zm0-14.583A5.84 5.84 0 0029.167 49 5.84 5.84 0 0035 54.833 5.84 5.84 0 0040.833 49 5.84 5.84 0 0035 43.167z"/><path d="M58.712 74.17c-.373 0-.746-.142-1.032-.425a1.46 1.46 0 010-2.062c6.064-6.064 9.403-14.12 9.403-22.683 0-17.69-14.393-32.083-32.083-32.083C17.31 16.917 2.917 31.31 2.917 49c0 8.563 3.34 16.62 9.403 22.68a1.46 1.46 0 01-2.062 2.062C3.643 67.13 0 58.342 0 49c0-19.3 15.7-35 35-35s35 15.7 35 35c0 9.342-3.643 18.13-10.258 24.742a1.444 1.444 0 01-1.03.429z"/><path d="M50.46 65.916c-.374 0-.747-.142-1.033-.425a1.46 1.46 0 010-2.062c3.865-3.862 5.991-8.987 5.991-14.43 0-11.258-9.158-20.416-20.417-20.416-11.258 0-20.416 9.159-20.416 20.417 0 5.442 2.126 10.567 5.99 14.426a1.46 1.46 0 01-2.062 2.062C14.098 61.078 11.668 55.22 11.668 49c0-12.866 10.468-23.334 23.333-23.334 12.866 0 23.334 10.468 23.334 23.334 0 6.221-2.43 12.078-6.846 16.488a1.444 1.444 0 01-1.03.428z"/><path d="M35.001 84a1.459 1.459 0 01-1.458-1.458v-26.25a1.459 1.459 0 012.917 0v26.25C36.46 83.347 35.806 84 35 84z"/></g><defs><clipPath id="clip0"><path fill="#fff" transform="translate(0 14)" d="M0 0h70v70H0z"/></clipPath></defs></svg>
